storage/app/icons/phosphoricons/light/numpad-light.svg

<svg xmlns="http://www.w3.org/2000/svg" fill="currentColor" viewBox="0 0 256 256"><path d="M78 48a14 14 0 1 1-14-14 14 14 0 0 1 14 14m50-14a14 14 0 1 0 14 14 14 14 0 0 0-14-14m64 28a14 14 0 1 0-14-14 14 14 0 0 0 14 14M64 90a14 14 0 1 0 14 14 14 14 0 0 0-14-14m64 0a14 14 0 1 0 14 14 14 14 0 0 0-14-14m64 0a14 14 0 1 0 14 14 14 14 0 0 0-14-14M64 146a14 14 0 1 0 14 14 14 14 0 0 0-14-14m64 0a14 14 0 1 0 14 14 14 14 0 0 0-14-14m0 56a14 14 0 1 0 14 14 14 14 0 0 0-14-14m64-56a14 14 0 1 0 14 14 14 14 0 0 0-14-14"/></svg>

<svg xmlns="http://www.w3.org/2000/svg" viewBox="0 0 256 256" fill="currentColor"><path d="M78,48A14,14,0,1,1,64,34,14,14,0,0,1,78,48Zm50-14a14,14,0,1,0,14,14A14,14,0,0,0,128,34Zm64,28a14,14,0,1,0-14-14A14,14,0,0,0,192,62ZM64,90a14,14,0,1,0,14,14A14,14,0,0,0,64,90Zm64,0a14,14,0,1,0,14,14A14,14,0,0,0,128,90Zm64,0a14,14,0,1,0,14,14A14,14,0,0,0,192,90ZM64,146a14,14,0,1,0,14,14A14,14,0,0,0,64,146Zm64,0a14,14,0,1,0,14,14A14,14,0,0,0,128,146Zm0,56a14,14,0,1,0,14,14A14,14,0,0,0,128,202Zm64-56a14,14,0,1,0,14,14A14,14,0,0,0,192,146Z"/></svg>
